!!!OTL: 笑顔
**kern	**text	**kern	**text	**kern	**text	**kern	**text	**kern	**text
*part5	*part5	*part4	*part4	*part3	*part3	*part2	*part2	*part1	*part1
*staff5	*staff5	*staff4	*staff4	*staff3	*staff3	*staff2	*staff2	*staff1	*staff1
*I"つばち	*	*I"たかちゃん	*	*I"かな	*	*I"まっきゃん	*	*I"ちな	*
*clefGv2	*	*clefF4	*	*clefG2	*	*clefG2	*	*clefG2	*
*k[f#c#]	*	*k[f#c#]	*	*k[f#c#]	*	*k[f#c#]	*	*k[f#c#]	*
*M4/4	*	*M4/4	*	*M4/4	*	*M4/4	*	*M4/4	*
*MM76	*	*MM76	*	*MM76	*	*MM76	*	*MM76	*
=1	=1	=1	=1	=1	=1	=1	=1	=1	=1
1r	.	1r	.	1r	.	1r	.	16r	.
.	.	.	.	.	.	.	.	16f#LL	だ
.	.	.	.	.	.	.	.	16f#	か
.	.	.	.	.	.	.	.	16f#JJ	ら
.	.	.	.	.	.	.	.	16f#LL	ぼ
.	.	.	.	.	.	.	.	16f#	く
.	.	.	.	.	.	.	.	16e	は
.	.	.	.	.	.	.	.	16dJJ	わ
.	.	.	.	.	.	.	.	8bL	らっ
.	.	.	.	.	.	.	.	16aL	て
.	.	.	.	.	.	.	.	16aJJ	ほ
.	.	.	.	.	.	.	.	8f#L	しん
.	.	.	.	.	.	.	.	16eL	だ
.	.	.	.	.	.	.	.	16dJJ	.
=2	=2	=2	=2	=2	=2	=2	=2	=2	=2
1r	.	1r	.	1r	.	1r	.	16r	.
.	.	.	.	.	.	.	.	16dLL	だ
.	.	.	.	.	.	.	.	16d	か
.	.	.	.	.	.	.	.	16dJJ	ら
.	.	.	.	.	.	.	.	16dLL	き
.	.	.	.	.	.	.	.	16d	み
.	.	.	.	.	.	.	.	16d	と
.	.	.	.	.	.	.	.	16AJJ	い
.	.	.	.	.	.	.	.	16eKL	き
.	.	.	.	.	.	.	.	8f#	て
.	.	.	.	.	.	.	.	16gJk	い
.	.	.	.	.	.	.	.	8f#L	たいん
.	.	.	.	.	.	.	.	16eL	だ
.	.	.	.	.	.	.	.	16dJJ	.
=3	=3	=3	=3	=3	=3	=3	=3	=3	=3
1r	.	1r	.	1r	.	1r	.	16r	.
.	.	.	.	.	.	.	.	16dLL	か
.	.	.	.	.	.	.	.	16d	け
.	.	.	.	.	.	.	.	16dJJ	が
.	.	.	.	.	.	.	.	16dLL	え
.	.	.	.	.	.	.	.	16d	び
.	.	.	.	.	.	.	.	16d	な
.	.	.	.	.	.	.	.	16BJJ	い
.	.	.	.	.	.	.	.	16AKL	ひ
.	.	.	.	.	.	.	.	8e	と
.	.	.	.	.	.	.	.	[16dJk	よ
.	.	.	.	.	.	.	.	16dLL]	.
.	.	.	.	.	.	.	.	16d	ぼ
.	.	.	.	.	.	.	.	16d	く
.	.	.	.	.	.	.	.	[16eJJ	は
=4	=4	=4	=4	=4	=4	=4	=4	=4	=4
1r	.	2E	.	2e	.	2g	ha	8.eL]	.
.	.	.	.	.	.	.	.	16BJk	き
.	.	.	.	.	.	.	.	16BKL	み
.	.	.	.	.	.	.	.	8d	を
.	.	.	.	.	.	.	.	16BJk	ま
.	.	2AA	.	2c#	.	2e	.	16bLL	も
.	.	.	.	.	.	.	.	16a	り
.	.	.	.	.	.	.	.	16b	つ
.	.	.	.	.	.	.	.	16bJJ	づ
.	.	.	.	.	.	.	.	8f#L	け
.	.	.	.	.	.	.	.	16eL	た
.	.	.	.	.	.	.	.	16dJJ	い
=5	=5	=5	=5	=5	=5	=5	=5	=5	=5
1r	.	2D	.	2d	fu	16r	.	16r	.
.	.	.	.	.	.	16dLL	き	16f#LL	き
.	.	.	.	.	.	16d	み	16f#	み
.	.	.	.	.	.	16dJJ	が	16f#JJ	が
.	.	.	.	.	.	16dLL	そ	16f#LL	そ
.	.	.	.	.	.	16d	こ	16f#	こ
.	.	.	.	.	.	16c#	に	16e	に
.	.	.	.	.	.	16BJJ	い	16dJJ	い
.	.	2AA	.	2e	.	16f#LL	て	16bLL	て
.	.	.	.	.	.	16f#	く	16b	く
.	.	.	.	.	.	16e	れ	16a	れ
.	.	.	.	.	.	16eJJ	る	16aJJ	る
.	.	.	.	.	.	16dLL	こ	16f#LL	こ
.	.	.	.	.	.	16d	と	16f#	と
.	.	.	.	.	.	16c#	が	16e	が
.	.	.	.	.	.	16BJJ	.	16dJJ	.
=6	=6	=6	=6	=6	=6	=6	=6	=6	=6
1r	.	2BB	.	16r	.	2d	fu	16r	.
.	.	.	.	16BLL	た	.	.	16dLL	た
.	.	.	.	16B	だ	.	.	16d	だ
.	.	.	.	16BJJ	そ	.	.	16dJJ	そ
.	.	.	.	8.BL	の	.	.	8.dL	の
.	.	.	.	16F#Jk	ち	.	.	16AJk	ち
.	.	2F#	.	16c#LL	い	2g	.	16eLL	い
.	.	.	.	16d	さ	.	.	16f#	さ
.	.	.	.	16d	な	.	.	16f#	な
.	.	.	.	16eJJ	き	.	.	16gJJ	き
.	.	.	.	16dLL	せ	.	.	16f#LL	せ
.	.	.	.	16d	き	.	.	16f#	き
.	.	.	.	16c#	が	.	.	16e	が
.	.	.	.	16BJJ	.	.	.	16dJJ	.
=7	=7	=7	=7	=7	=7	=7	=7	=7	=7
1r	.	2G	.	2d	.	2g	uh	8r	.
.	.	.	.	.	.	.	.	16dLL	な
.	.	.	.	.	.	.	.	16dJJ	に
.	.	.	.	.	.	.	.	16dLL	よ
.	.	.	.	.	.	.	.	16d	り
.	.	.	.	.	.	.	.	16d	も
.	.	.	.	.	.	.	.	16BJJ	あ
.	.	2D	.	2d	.	2f#	.	16ALL	た
.	.	.	.	.	.	.	.	16A	た
.	.	.	.	.	.	.	.	16e	か
.	.	.	.	.	.	.	.	[16dJJ	い
.	.	.	.	.	.	.	.	16dLL]	.
.	.	.	.	.	.	.	.	16d	だ
.	.	.	.	.	.	.	.	16d	か
.	.	.	.	.	.	.	.	[16eJJ	ら
=8	=8	=8	=8	=8	=8	=8	=8	=8	=8
1r	.	4E	.	2B	.	2e	.	8.eL]	.
.	.	.	.	.	.	.	.	16BJk	ぼ
.	.	8E	.	.	.	.	.	16BKL	く
.	.	.	.	.	.	.	.	8d	は
.	.	16r	.	.	.	.	.	.	.
.	.	16GG	.	.	.	.	.	16BJk	つ
.	.	16AA	.	2A	.	2c#	.	16bKL	よ
.	.	16r	.	.	.	.	.	8b	く
.	.	8AA	.	.	.	.	.	.	.
.	.	.	.	.	.	.	.	16bJk	な
.	.	4C#	.	.	.	.	.	8f#L	り
.	.	.	.	.	.	.	.	16eL	た
.	.	.	.	.	.	.	.	[16dJJ	い
=9	=9	=9	=9	=9	=9	=9	=9	=9	=9
1r	.	16D	.	2d	uh	8dL	lu	2d]	.
.	.	16r	.	.	.	.	.	.	.
.	.	4D	.	.	.	8e	lu	.	.
.	.	.	.	.	.	8f#	lu	.	.
.	.	16r	.	.	.	8gJ	lu	.	.
.	.	16D	.	.	.	.	.	.	.
.	.	16C#	.	2f#	.	8aL	lu	4r	.
.	.	16r	.	.	.	.	.	.	.
.	.	4.C#	.	.	.	8b	lu	.	.
.	.	.	.	.	.	8cc#	lu	8eL	yeah
.	.	.	.	.	.	[8ddJ	lu	[8f#J	yeah
=10	=10	=10	=10	=10	=10	=10	=10	=10	=10
1r	.	16BB	.	4a	uh	1dd]	.	2f#]	.
.	.	16r	.	.	.	.	.	.	.
.	.	4BB	.	.	.	.	.	.	.
.	.	.	.	4g	.	.	.	.	.
.	.	16r	.	.	.	.	.	.	.
.	.	16BB	.	.	.	.	.	.	.
.	.	16FF#	.	4f#	.	.	.	4r	.
.	.	16r	.	.	.	.	.	.	.
.	.	4.FF#	.	.	.	.	.	.	.
.	.	.	.	4d	.	.	.	8aL	yeah
.	.	.	.	.	.	.	.	[8dJ	yeah
=11	=11	=11	=11	=11	=11	=11	=11	=11	=11
1r	.	16GG	.	8BL	.	8dL	lu	4d]	.
.	.	16r	.	.	.	.	.	.	.
.	.	4GG	.	8c#	.	8e	lu	.	.
.	.	.	.	8d	.	8f#	lu	4r	.
.	.	16r	.	8eJ	.	8gJ	lu	.	.
.	.	16GG	.	.	.	.	.	.	.
.	.	16FF#	.	8f#L	.	8aL	lu	2r	.
.	.	16r	.	.	.	.	.	.	.
.	.	4.FF#	.	8g	.	8b	lu	.	.
.	.	.	.	8a	.	8cc#	lu	.	.
.	.	.	.	8bJ	.	8ddJ	lu	.	.
=12	=12	=12	=12	=12	=12	=12	=12	=12	=12
1r	.	8EEL	.	4b	.	4dd	fu	2r	.
.	.	8FF#	.	.	.	.	.	.	.
.	.	8GG	.	4a	.	4cc#	.	.	.
.	.	8AAJ	.	.	.	.	.	.	.
.	.	8AAL	.	4g	.	4b	.	4r	.
.	.	8BB	.	.	.	.	.	.	.
.	.	8C#	.	4a	.	4cc#	.	16r	.
.	.	.	.	.	.	.	.	16f#LL	は
.	.	8AAJ	.	.	.	.	.	16e	な
.	.	.	.	.	.	.	.	16dJJ	が
=13	=13	=13	=13	=13	=13	=13	=13	=13	=13
1r	.	4.D	.	4r	.	4r	.	16f#KL	ま
.	.	.	.	.	.	.	.	8.f#J	た
.	.	.	.	4d	.	4f#	oh	16r	.
.	.	.	.	.	.	.	.	16f#LL	さ
.	.	16r	.	.	.	.	.	16e	い
.	.	16D	.	.	.	.	.	16dJJ	て
.	.	16FF#	.	4r	.	4r	.	16f#KL	い
.	.	16r	.	.	.	.	.	8.f#J	る
.	.	4.FF#	.	.	.	.	.	.	.
.	.	.	.	4c#	.	4f#	oh	16r	.
.	.	.	.	.	.	.	.	16f#LL	ぼ
.	.	.	.	.	.	.	.	16f#	く
.	.	.	.	.	.	.	.	[16bJJ	は
=14	=14	=14	=14	=14	=14	=14	=14	=14	=14
1r	.	4.BB	.	4r	.	4r	.	16bLL]	.
.	.	.	.	.	.	.	.	16b	ち
.	.	.	.	.	.	.	.	16a	っ
.	.	.	.	.	.	.	.	16aJJ	ぽ
.	.	.	.	4d	.	4f#	oh	16f#LL	け
.	.	.	.	.	.	.	.	16f#	な
.	.	16r	.	.	.	.	.	16e	い
.	.	16BB	.	.	.	.	.	16dJJ	っ
.	.	16FF#	.	4r	.	4r	.	8eL	ぽを
.	.	16r	.	.	.	.	.	.	.
.	.	4.FF#	.	.	.	.	.	16f#L	ふ
.	.	.	.	.	.	.	.	16AJJ	む
.	.	.	.	4c#	.	4f#	oh	16r	.
.	.	.	.	.	.	.	.	16ALL	お
.	.	.	.	.	.	.	.	16A	も
.	.	.	.	.	.	.	.	16AJJ	い
=15	=15	=15	=15	=15	=15	=15	=15	=15	=15
1r	.	4.GG	.	4r	.	4r	.	16BLL	で
.	.	.	.	.	.	.	.	16d	に
.	.	.	.	.	.	.	.	16d	か
.	.	.	.	.	.	.	.	16BJJ	わ
.	.	.	.	4d	.	4g	fu	16dLL	る
.	.	.	.	.	.	.	.	16d	こ
.	.	16r	.	.	.	.	.	16B	の
.	.	16GG	.	.	.	.	.	16AJJ	ひ
.	.	16D	.	2d	.	2f#	uh	16f#KL	び
.	.	16r	.	.	.	.	.	8.f#J	に
.	.	4.D	.	.	.	.	.	.	.
.	.	.	.	.	.	.	.	16r	.
.	.	.	.	.	.	.	.	8AL	なん
.	.	.	.	.	.	.	.	16AJk	ど
=16	=16	=16	=16	=16	=16	=16	=16	=16	=16
1r	.	4.E	.	2d	.	2g	fu	16BLL	も
.	.	.	.	.	.	.	.	16d	サ
.	.	.	.	.	.	.	.	16d	ヨ
.	.	.	.	.	.	.	.	16dJJ	ナ
.	.	.	.	.	.	.	.	8dL	ラ
.	.	16r	.	.	.	.	.	16BL	を
.	.	16E	.	.	.	.	.	16AJJ	す
.	.	8AAL	.	2e	.	4a	.	16f#LL	る
.	.	.	.	.	.	.	.	16f#J	よ
.	.	8C#	.	.	.	.	.	8eJ	.
.	.	8E	.	.	.	16r	.	16r	.
.	.	.	.	.	.	16aLL	ど	16f#LL	ど
.	.	8AAJ	.	.	.	16g	こ	16e	こ
.	.	.	.	.	.	16f#JJ	ま	16dJJ	ま
=17	=17	=17	=17	=17	=17	=17	=17	=17	=17
1r	.	4.D	.	2d	uh	16aKL	で	16f#KL	で
.	.	.	.	.	.	8.aJ	も	8.f#J	も
.	.	.	.	.	.	16r	.	16r	.
.	.	.	.	.	.	16aLL	ど	16f#LL	ど
.	.	16r	.	.	.	16g	こ	16e	こ
.	.	16D	.	.	.	16f#JJ	ま	16dJJ	ま
.	.	16FF#	.	2c#	.	16aKL	で	16f#KL	で
.	.	16r	.	.	.	8.aJ	も	8.f#J	も
.	.	4.FF#	.	.	.	.	.	.	.
.	.	.	.	.	.	4r	.	16r	.
.	.	.	.	.	.	.	.	16f#LL	あ
.	.	.	.	.	.	.	.	16f#	か
.	.	.	.	.	.	.	.	[16bJJ	る
=18	=18	=18	=18	=18	=18	=18	=18	=18	=18
1r	.	4.BB	.	2d	.	2f#	fu	16bLL]	.
.	.	.	.	.	.	.	.	16b	く
.	.	.	.	.	.	.	.	16a	な
.	.	.	.	.	.	.	.	16aJJ	れ
.	.	.	.	.	.	.	.	16f#LL	る
.	.	.	.	.	.	.	.	16f#	き
.	.	16r	.	.	.	.	.	16e	み
.	.	16BB	.	.	.	.	.	16dJJ	の
.	.	16FF#	.	4c#	.	2e	.	16eKL	こ
.	.	16r	.	.	.	.	.	8f#	え
.	.	4.FF#	.	.	.	.	.	.	.
.	.	.	.	.	.	.	.	16AJk	が
.	.	.	.	16r	.	.	.	16r	.
.	.	.	.	16c#LL	い	.	.	16ALL	い
.	.	.	.	16c#	つ	.	.	16A	つ
.	.	.	.	16c#JJ	だ	.	.	16AJJ	だ
=19	=19	=19	=19	=19	=19	=19	=19	=19	=19
1r	.	4.GG	.	16dLL	っ	4r	.	16BLL	っ
.	.	.	.	16f#	て	.	.	16d	て
.	.	.	.	16f#	い	.	.	16d	い
.	.	.	.	16dJJ	ち	.	.	16BJJ	ち
.	.	.	.	8f#L	ばん	4d	fu	8dL	ばん
.	.	16r	.	16dL	の	.	.	16BL	の
.	.	16GG	.	16c#JJ	ひ	.	.	16AJJ	ひ
.	.	16D	.	16aKL	か	4f#	.	16f#KL	か
.	.	16r	.	8.aJ	り	.	.	8.f#J	り
.	.	4.D	.	.	.	.	.	.	.
.	.	.	.	4r	.	4a	.	16r	.
.	.	.	.	.	.	.	.	16ALL	せ
.	.	.	.	.	.	.	.	16A	な
.	.	.	.	.	.	.	.	16AJJ	か
=20	=20	=20	=20	=20	=20	=20	=20	=20	=20
1r	.	4.E	.	2g	.	2b	wa	16BKL	を
.	.	.	.	.	.	.	.	8d	ちゃん
.	.	.	.	.	.	.	.	16dJk	と
.	.	.	.	.	.	.	.	8dL	おし
.	.	16r	.	.	.	.	.	16BL	て
.	.	16E	.	.	.	.	.	16AJJ	い
.	.	8AAL	.	2f#	.	2a	ah	16f#LL	る
.	.	.	.	.	.	.	.	16f#J	よ
.	.	8C#	.	.	.	.	.	8eJ	.
.	.	8E	.	.	.	.	.	16r	.
.	.	.	.	.	.	.	.	16f#LL	や
.	.	8AAJ	.	.	.	.	.	16f#	さ
.	.	.	.	.	.	.	.	16gJJ	し
=21	=21	=21	=21	=21	=21	=21	=21	=21	=21
1r	.	4F#	.	2c#	fu	[2a	fu	8aL	い
.	.	.	.	.	.	.	.	16aL	ひ
.	.	.	.	.	.	.	.	[16aJJ	と
.	.	4C#	.	.	.	.	.	16aKL]	.
.	.	.	.	.	.	.	.	8c#	に
.	.	.	.	.	.	.	.	16c#Jk	な
.	.	8BBL	.	2B	.	8aL]	.	16c#LL	り
.	.	.	.	.	.	.	.	16dJ	た
.	.	8D	.	.	.	8dd	fu	8dJ	い
.	.	8F#	.	.	.	8cc#	.	16r	.
.	.	.	.	.	.	.	.	16eLL	い
.	.	8BBJ	.	.	.	8bJ	.	16e	つ
.	.	.	.	.	.	.	.	16f#JJ	か
=22	=22	=22	=22	=22	=22	=22	=22	=22	=22
1r	.	4E	.	4B	.	2g	.	8gL	の
.	.	.	.	.	.	.	.	16gL	き
.	.	.	.	.	.	.	.	[16gJJ	み
.	.	4BB	.	4e	fu	.	.	16gKL]	.
.	.	.	.	.	.	.	.	8d	が
.	.	.	.	.	.	.	.	[16dJk	い-
.	.	8AAL	.	4c#	.	2e	.	16dLL]	っ
.	.	.	.	.	.	.	.	16eJ	た
.	.	8C#	.	.	.	.	.	8eJ	ね
.	.	8E	.	4A	.	.	.	16r	.
.	.	.	.	.	.	.	.	16c#LL	こ
.	.	8AAJ	.	.	.	.	.	16c#	こ
.	.	.	.	.	.	.	.	16BJJ	ろ
=23	=23	=23	=23	=23	=23	=23	=23	=23	=23
1r	.	4FF#	.	2A	.	2c#	uh	8AL	の
.	.	.	.	.	.	.	.	16AL	な
.	.	.	.	.	.	.	.	[16aJJ	か
.	.	8FF#	.	.	.	.	.	16aKL]	.
.	.	.	.	.	.	.	.	8c#	で
.	.	16r	.	.	.	.	.	.	.
.	.	16FF#	.	.	.	.	.	16c#Jk	く
.	.	16BB	.	2B	.	2d	.	16c#LL	す
.	.	16r	.	.	.	.	.	16dJ	ぶ
.	.	4BB	.	.	.	.	.	8dJ	る
.	.	.	.	.	.	.	.	16r	.
.	.	.	.	.	.	.	.	16eLL	せ
.	.	8FF#	.	.	.	.	.	16e	つ
.	.	.	.	.	.	.	.	16f#JJ	な
=24	=24	=24	=24	=24	=24	=24	=24	=24	=24
1r	.	8EEL	.	4r	.	4r	.	8gL	い
.	.	16EEL	.	.	.	.	.	16f#L	も
.	.	16EEJJ	.	.	.	.	.	[16dJJ	の
.	.	8EEL	.	4B	.	4e	oh	2d]	.
.	.	16EEL	.	.	.	.	.	.	.
.	.	16EEJJ	.	.	.	.	.	.	.
.	.	8EEL	.	4d	.	4f#	.	.	.
.	.	16EEL	.	.	.	.	.	.	.
.	.	16EEJJ	.	.	.	.	.	.	.
.	.	8EEL	.	4e	.	4g	.	8dL	つ
.	.	16EEL	.	.	.	.	.	8bJ	た
.	.	16EEJJ	.	.	.	.	.	.	.
=25	=25	=25	=25	=25	=25	=25	=25	=25	=25
1r	.	4AA	.	2d	.	2g	ha	4b	え
.	.	4AA	.	.	.	.	.	8bL	.
.	.	.	.	.	.	.	.	16aL	て
.	.	.	.	.	.	.	.	[16aJJ	よ
.	.	8EEL	.	2e	.	2a	ah	2a]	.
.	.	8AA	.	.	.	.	.	.	.
.	.	8C#	.	.	.	.	.	.	.
.	.	8AAJ	.	.	.	.	.	.	.
=26	=26	=26	=26	=26	=26	=26	=26	=26	=26
1r	.	8AA	.	16dKL	.	16aKL	tu	1r	.
.	.	.	.	8.dJ	.	8.aJ	lu	.	.
.	.	16r	.	.	.	.	.	.	.
.	.	16AA	.	.	.	.	.	.	.
.	.	4AA	.	8r	.	8r	.	.	.
.	.	.	.	16c#LL	.	16aLL	tu	.	.
.	.	.	.	[16c#JJ	.	[16aJJ	lu	.	.
.	.	16r	.	8c#]	.	8a]	.	.	.
.	.	16AAKL	.	.	.	.	.	.	.
.	.	8AAJ	.	8r	.	8r	.	.	.
.	.	16AAKL	.	8eL	.	8gL	fu	.	.
.	.	8.AAJ	.	.	.	.	.	.	.
.	.	.	.	8gJ	.	8bJ	.	.	.
=27	=27	=27	=27	=27	=27	=27	=27	=27	=27
1r	.	16D	.	2f#	.	2.a	.	16r	.
.	.	16r	.	.	.	.	.	8f#L	そう
.	.	4D	.	.	.	.	.	.	.
.	.	.	.	.	.	.	.	16f#Jk	さ
.	.	.	.	.	.	.	.	16f#LL	き
.	.	.	.	.	.	.	.	16f#	み
.	.	16r	.	.	.	.	.	16e	が
.	.	16D	.	.	.	.	.	16dJJ	わ
.	.	16AA	.	4e	.	.	.	8bL	らっ
.	.	16r	.	.	.	.	.	.	.
.	.	4.AA	.	.	.	.	.	16aL	て
.	.	.	.	.	.	.	.	16aJJ	く
.	.	.	.	8eL	.	8aL	uh	8f#L	れる
.	.	.	.	8c#J	.	8eJ	.	16eL	な
.	.	.	.	.	.	.	.	16dJJ	ら
=28	=28	=28	=28	=28	=28	=28	=28	=28	=28
1r	.	16BB	.	2B	.	2d	.	16r	.
.	.	16r	.	.	.	.	.	16dLL	ぼ
.	.	4BB	.	.	.	.	.	16d	く
.	.	.	.	.	.	.	.	16dJJ	は
.	.	.	.	.	.	.	.	8dL	なん
.	.	16r	.	.	.	.	.	16dL	で
.	.	16BB	.	.	.	.	.	16dJJ	も
.	.	16FF#	.	2c#	.	2f#	.	16eLL	で
.	.	16r	.	.	.	.	.	16f#	き
.	.	4.FF#	.	.	.	.	.	16f#	る
.	.	.	.	.	.	.	.	16gJJ	よ
.	.	.	.	.	.	.	.	8f#L	なん
.	.	.	.	.	.	.	.	16eL	て
.	.	.	.	.	.	.	.	16dJJ	.
=29	=29	=29	=29	=29	=29	=29	=29	=29	=29
1r	.	16GG	.	4r	.	4r	.	16r	.
.	.	16r	.	.	.	.	.	8dL	ちょ
.	.	4GG	.	.	.	.	.	.	.
.	.	.	.	.	.	.	.	16dJk	っと
.	.	.	.	4d	.	4g	oh	16dLL	つ
.	.	.	.	.	.	.	.	16d	よ
.	.	16r	.	.	.	.	.	16d	が
.	.	16GG	.	.	.	.	.	16BJJ	っ
.	.	16D	.	4r	.	4r	.	16ALL	て
.	.	16r	.	.	.	.	.	16A	る
.	.	4.D	.	.	.	.	.	16e	か
.	.	.	.	.	.	.	.	[16dJJ	な
.	.	.	.	4d	.	4f#	oh	16dLL]	.
.	.	.	.	.	.	.	.	16d	で
.	.	.	.	.	.	.	.	16d	も
.	.	.	.	.	.	.	.	[16eJJ	ね
=30	=30	=30	=30	=30	=30	=30	=30	=30	=30
1r	.	8EL	.	2e	.	2g	ha	8.eL]	.
.	.	8BB	.	.	.	.	.	.	.
.	.	.	.	.	.	.	.	16BJk	な
.	.	8GG	.	.	.	.	.	16BKL	ぜ
.	.	.	.	.	.	.	.	8d	か
.	.	8EEJ	.	.	.	.	.	.	.
.	.	.	.	.	.	.	.	16BJk	ゆ
.	.	8AAL	.	2e	.	2a	.	16bLL	う
.	.	.	.	.	.	.	.	16a	き
.	.	8C#	.	.	.	.	.	16b	が
.	.	.	.	.	.	.	.	16bJJ	わ
.	.	8E	.	.	.	.	.	8f#L	くん
.	.	8AAJ	.	.	.	.	.	16eL	だ
.	.	.	.	.	.	.	.	16dJJ	.
=31	=31	=31	=31	=31	=31	=31	=31	=31	=31
1r	.	16D	.	16r	.	[2a	fu	16r	.
.	.	16r	.	16dLL	は	.	.	16f#LL	は
.	.	4D	.	16d	な	.	.	16f#	な
.	.	.	.	16dJJ	が	.	.	16f#JJ	が
.	.	.	.	8dL	ちっ	.	.	8f#L	ちっ
.	.	16r	.	16c#L	て	.	.	16eL	て
.	.	16D	.	16BJJ	さ	.	.	16dJJ	さ
.	.	16AA	.	16gLL	く	8aL]	.	16bLL	く
.	.	16r	.	16g	よ	.	.	16b	よ
.	.	4.AA	.	16f#	う	8g	fu	16a	う
.	.	.	.	16f#JJ	に	.	.	16aJJ	に
.	.	.	.	8dL	なん	8a	.	8f#L	なん
.	.	.	.	16c#L	ど	8cc#J	.	16eL	ど
.	.	.	.	16BJJ	も	.	.	16dJJ	も
=32	=32	=32	=32	=32	=32	=32	=32	=32	=32
1r	.	16BB	.	16r	.	4dd	uh	16r	.
.	.	16r	.	16BLL	し	.	.	16dLL	し
.	.	4BB	.	16B	あ	.	.	16d	あ
.	.	.	.	16BJJ	わ	.	.	16dJJ	わ
.	.	.	.	16BKL	せ	4cc#	.	16dKL	せ
.	.	.	.	8B	を	.	.	8d	を
.	.	16r	.	.	.	.	.	.	.
.	.	16BB	.	16F#Jk	く	.	.	16AJk	く
.	.	16FF#	.	16c#LL	り	4a	.	16eLL	り
.	.	16r	.	16d	か	.	.	16f#	か
.	.	4.FF#	.	16d	え	.	.	16f#	え
.	.	.	.	16eJJ	せ	.	.	16gJJ	せ
.	.	.	.	8dL	た	4f#	.	8f#L	た
.	.	.	.	16c#L	な	.	.	16eL	な
.	.	.	.	16BJJ	ら	.	.	16dJJ	ら
=33	=33	=33	=33	=33	=33	=33	=33	=33	=33
1r	.	16GG	.	4r	.	2d	uh	8r	.
.	.	16r	.	.	.	.	.	.	.
.	.	4GG	.	.	.	.	.	8d	そう
.	.	.	.	4B	uh	.	.	8dL	やっ
.	.	16r	.	.	.	.	.	16dL	て
.	.	16GG	.	.	.	.	.	16BJJ	い
.	.	16D	.	2c#	.	2f#	.	16ALL	き
.	.	16r	.	.	.	.	.	16A	て
.	.	4.D	.	.	.	.	.	16e	い
.	.	.	.	.	.	.	.	[16dJJ	こ-
.	.	.	.	.	.	.	.	16dLL]	う
.	.	.	.	.	.	.	.	16d	だ
.	.	.	.	.	.	.	.	16d	か
.	.	.	.	.	.	.	.	[16eJJ	ら
=34	=34	=34	=34	=34	=34	=34	=34	=34	=34
1r	.	4E	.	2e	.	2g	ha	8.eL]	.
.	.	.	.	.	.	.	.	16BJk	ぼ
.	.	8E	.	.	.	.	.	16BKL	く
.	.	.	.	.	.	.	.	8d	は
.	.	16r	.	.	.	.	.	.	.
.	.	16GG	.	.	.	.	.	16BJk	つ
.	.	16AA	.	2c#	.	2e	.	16bKL	よ
.	.	16r	.	.	.	.	.	8b	く
.	.	8AA	.	.	.	.	.	.	.
.	.	.	.	.	.	.	.	16bJk	な
.	.	4C#	.	.	.	.	.	8f#L	り
.	.	.	.	.	.	.	.	16eL	た
.	.	.	.	.	.	.	.	[16dJJ	い
=35	=35	=35	=35	=35	=35	=35	=35	=35	=35
1r	.	16D	.	2d	uh	8dL	lu	2d]	.
.	.	16r	.	.	.	.	.	.	.
.	.	4D	.	.	.	8e	lu	.	.
.	.	.	.	.	.	8f#	lu	.	.
.	.	16r	.	.	.	8gJ	lu	.	.
.	.	16D	.	.	.	.	.	.	.
.	.	16C#	.	2f#	.	8aL	lu	4r	.
.	.	16r	.	.	.	.	.	.	.
.	.	4.C#	.	.	.	8b	lu	.	.
.	.	.	.	.	.	8cc#	lu	8eL	yeah
.	.	.	.	.	.	[8ddJ	lu	[8f#J	yeah
=36	=36	=36	=36	=36	=36	=36	=36	=36	=36
1r	.	16BB	.	4a	uh	1dd]	.	2f#]	.
.	.	16r	.	.	.	.	.	.	.
.	.	4BB	.	.	.	.	.	.	.
.	.	.	.	4g	.	.	.	.	.
.	.	16r	.	.	.	.	.	.	.
.	.	16BB	.	.	.	.	.	.	.
.	.	16FF#	.	4f#	.	.	.	4r	.
.	.	16r	.	.	.	.	.	.	.
.	.	4.FF#	.	.	.	.	.	.	.
.	.	.	.	4d	.	.	.	8aL	yeah
.	.	.	.	.	.	.	.	[8dJ	yeah
=37	=37	=37	=37	=37	=37	=37	=37	=37	=37
1r	.	16GG	.	8BL	.	8dL	lu	4d]	.
.	.	16r	.	.	.	.	.	.	.
.	.	4GG	.	8c#	.	8e	lu	.	.
.	.	.	.	8d	.	8f#	lu	4r	.
.	.	16r	.	8eJ	.	8gJ	lu	.	.
.	.	16GG	.	.	.	.	.	.	.
.	.	16FF#	.	8f#L	.	8aL	lu	2r	.
.	.	16r	.	.	.	.	.	.	.
.	.	4.FF#	.	8g	.	8b	lu	.	.
.	.	.	.	8a	.	8cc#	lu	.	.
.	.	.	.	8bJ	.	8ddJ	lu	.	.
=38	=38	=38	=38	=38	=38	=38	=38	=38	=38
2r	.	8EEL	.	4b	.	4dd	fu	1r	.
.	.	8FF#	.	.	.	.	.	.	.
.	.	8GG	.	4a	.	4cc#	.	.	.
.	.	8AAJ	.	.	.	.	.	.	.
4r	.	8AAL	.	4g	.	4b	.	.	.
.	.	8BB	.	.	.	.	.	.	.
16r	.	8C#	.	4a	.	4cc#	.	.	.
16F#LL	ご	.	.	.	.	.	.	.	.
16E	め	8AAJ	.	.	.	.	.	.	.
16DJJ	ん	.	.	.	.	.	.	.	.
=39	=39	=39	=39	=39	=39	=39	=39	=39	=39
16F#KL	ね	1r	.	1f#	.	1a	.	2d	fu
8.F#J	と	.	.	.	.	.	.	.	.
16r	.	.	.	.	.	.	.	.	.
16F#LL	い	.	.	.	.	.	.	.	.
16E	え	.	.	.	.	.	.	.	.
16DJJ	な	.	.	.	.	.	.	.	.
16F#KL	く	.	.	.	.	.	.	2c#	.
8.F#J	て	.	.	.	.	.	.	.	.
16r	.	.	.	.	.	.	.	.	.
16F#LL	も	.	.	.	.	.	.	.	.
16F#	ど	.	.	.	.	.	.	.	.
[16BJJ	か	.	.	.	.	.	.	.	.
=40	=40	=40	=40	=40	=40	=40	=40	=40	=40
16BLL]	.	2r	.	2f#	.	2b	.	2d	.
16B	し	.	.	.	.	.	.	.	.
16A	さ	.	.	.	.	.	.	.	.
16AJJ	を	.	.	.	.	.	.	.	.
16F#LL	ぶ	.	.	.	.	.	.	.	.
16F#	つ	.	.	.	.	.	.	.	.
16E	け	.	.	.	.	.	.	.	.
16DJJ	た	.	.	.	.	.	.	.	.
16ELL	り	4r	.	2e	.	2a	.	2c#	.
16E	も	.	.	.	.	.	.	.	.
16F#	し	.	.	.	.	.	.	.	.
16AAJJ	た	.	.	.	.	.	.	.	.
4r	.	16r	.	.	.	.	.	.	.
.	.	16AALL	い	.	.	.	.	.	.
.	.	16AA	ち	.	.	.	.	.	.
.	.	16AAJJ	ば	.	.	.	.	.	.
=41	=41	=41	=41	=41	=41	=41	=41	=41	=41
1r	.	16BBLL	ん	4r	.	4r	.	8r	.
.	.	16D	ち	.	.	.	.	.	.
.	.	16D	か	.	.	.	.	4.d	fon
.	.	16BBJJ	く	.	.	.	.	.	.
.	.	16DLL	に	4g	.	4b	fon	.	.
.	.	16D	い	.	.	.	.	.	.
.	.	16BB	る	.	.	.	.	.	.
.	.	16AAJJ	こ	.	.	.	.	.	.
.	.	16F#KL	と	4r	.	4r	.	8r	.
.	.	8.F#J	に	.	.	.	.	.	.
.	.	.	.	.	.	.	.	4.d	fon
.	.	16r	.	4f#	.	4a	fon	.	.
.	.	16AALL	あ	.	.	.	.	.	.
.	.	16AA	ま	.	.	.	.	.	.
.	.	16AAJJ	え	.	.	.	.	.	.
=42	=42	=42	=42	=42	=42	=42	=42	=42	=42
1r	.	16BBLL	て	2e	.	2g	uh	2B	uh
.	.	16D	ば	.	.	.	.	.	.
.	.	16D	か	.	.	.	.	.	.
.	.	16DJJ	り	.	.	.	.	.	.
.	.	8DL	じゃ	.	.	.	.	.	.
.	.	16BBL	だ	.	.	.	.	.	.
.	.	16AAJJ	め	.	.	.	.	.	.
.	.	16F#LL	だ	4r	.	2a	.	4c#	fu
.	.	16F#J	ね	.	.	.	.	.	.
.	.	8EJ	.	.	.	.	.	.	.
.	.	4r	.	16r	.	.	.	4e	.
.	.	.	.	16f#LL	た	.	.	.	.
.	.	.	.	16f#	の	.	.	.	.
.	.	.	.	16gJJ	し	.	.	.	.
=43	=43	=43	=43	=43	=43	=43	=43	=43	=43
1r	.	2F#	.	8aL	い	2a	uh	4f#	.
.	.	.	.	16aL	ひ	.	.	.	.
.	.	.	.	[16aJJ	と	.	.	.	.
.	.	.	.	16aKL]	.	.	.	4a	.
.	.	.	.	8c#	で	.	.	.	.
.	.	.	.	16c#Jk	あ	.	.	.	.
.	.	2BB	.	16c#LL	り	2f#	.	4b	.
.	.	.	.	16dJ	た	.	.	.	.
.	.	.	.	8dJ	い	.	.	.	.
.	.	.	.	16r	.	.	.	4dd	.
.	.	.	.	16eLL	う	.	.	.	.
.	.	.	.	16e	け	.	.	.	.
.	.	.	.	16f#JJ	い	.	.	.	.
=44	=44	=44	=44	=44	=44	=44	=44	=44	=44
1r	.	2E	.	8gL	れ	2e	.	2b	.
.	.	.	.	16gL	る	.	.	.	.
.	.	.	.	16gJJ	こ	.	.	.	.
.	.	.	.	16gKL	と	.	.	.	.
.	.	.	.	8d	を	.	.	.	.
.	.	.	.	16dJk	お	.	.	.	.
.	.	2AA	.	16dLL	そ	4c#	.	8.aL	fu
.	.	.	.	16eJ	れ	.	.	.	.
.	.	.	.	8eJ	ず	.	.	.	.
.	.	.	.	.	.	.	.	[16cc#Jk	.
.	.	.	.	4r	.	16r	.	8cc#L]	.
.	.	.	.	.	.	16c#LL	ひ	.	.
.	.	.	.	.	.	16c#	た	8aJ	.
.	.	.	.	.	.	16BJJ	む	.	.
=45	=45	=45	=45	=45	=45	=45	=45	=45	=45
1r	.	2FF#	.	2c#	.	8AL	き	1f#	uh
.	.	.	.	.	.	16AL	な	.	.
.	.	.	.	.	.	16AJJ	と	.	.
.	.	.	.	.	.	16aKL	き	.	.
.	.	.	.	.	.	8c#	を	.	.
.	.	.	.	.	.	16c#Jk	か	.	.
.	.	4BB	.	2d	.	16c#LL	さ	.	.
.	.	.	.	.	.	16dJ	ね	.	.
.	.	.	.	.	.	8dJ	て	.	.
.	.	8r	.	.	.	16r	.	.	.
.	.	.	.	.	.	16eLL	た	.	.
.	.	8FF#	.	.	.	16e	し	.	.
.	.	.	.	.	.	16f#JJ	か	.	.
=46	=46	=46	=46	=46	=46	=46	=46	=46	=46
1r	.	8EEL	.	1B	.	8gL	な	1e	fu
.	.	16EEL	.	.	.	16f#L	も	.	.
.	.	16EEJJ	.	.	.	[16dJJ	の	.	.
.	.	8EEL	.	.	.	2d]	.	.	.
.	.	16EEL	.	.	.	.	.	.	.
.	.	16EEJJ	.	.	.	.	.	.	.
.	.	8EEL	.	.	.	.	.	.	.
.	.	16EEL	.	.	.	.	.	.	.
.	.	16EEJJ	.	.	.	.	.	.	.
.	.	8EEL	.	.	.	8dL	み	.	.
.	.	16EEL	.	.	.	8bJ	つ	.	.
.	.	16EEJJ	.	.	.	.	.	.	.
=47	=47	=47	=47	=47	=47	=47	=47	=47	=47
1r	.	4AA	.	2d	.	4b	け	2g	ha
.	.	4AA	.	.	.	8bL	.	.	.
.	.	.	.	.	.	16aL	た	.	.
.	.	.	.	.	.	[16aJJ	い	.	.
.	.	8EEL	.	2c#	.	2a]	.	2e	ah
.	.	8AA	.	.	.	.	.	.	.
.	.	8C#	.	.	.	.	.	.	.
.	.	8AAJ	.	.	.	.	.	.	.
=48	=48	=48	=48	=48	=48	=48	=48	=48	=48
1r	.	4AA	.	4B	.	4e	woh	1r	.
.	.	4AA	.	4d	.	4g	oh	.	.
.	.	4AA	.	4e	.	4a	.	.	.
.	.	4AA	.	4g	.	4cc#	.	.	.
=49	=49	=49	=49	=49	=49	=49	=49	=49	=49
1r	.	16D	.	2f#	.	2a	uh	16r	.
.	.	16r	.	.	.	.	.	16f#LL	か
.	.	4D	.	.	.	.	.	16f#	か
.	.	.	.	.	.	.	.	16f#JJ	え
.	.	.	.	.	.	.	.	16f#LL	き
.	.	.	.	.	.	.	.	16f#	れ
.	.	16r	.	.	.	.	.	16e	ぬ
.	.	16D	.	.	.	.	.	16dJJ	さ
.	.	16AA	.	2e	.	2a	.	8bL	びし
.	.	16r	.	.	.	.	.	.	.
.	.	4.AA	.	.	.	.	.	16aL	さ
.	.	.	.	.	.	.	.	16aJJ	の
.	.	.	.	.	.	.	.	16f#LL	な
.	.	.	.	.	.	.	.	16f#	か
.	.	.	.	.	.	.	.	16e	で
.	.	.	.	.	.	.	.	16dJJ	.
=50	=50	=50	=50	=50	=50	=50	=50	=50	=50
1r	.	16BB	.	2f#	.	2b	.	16r	.
.	.	16r	.	.	.	.	.	16dLL	も
.	.	4BB	.	.	.	.	.	16d	し
.	.	.	.	.	.	.	.	16dJJ	も
.	.	.	.	.	.	.	.	16dLL	き
.	.	.	.	.	.	.	.	16d	み
.	.	16r	.	.	.	.	.	16d	が
.	.	16BB	.	.	.	.	.	16AJJ	ひ
.	.	16FF#	.	2e	.	2a	.	16eLL	と
.	.	16r	.	.	.	.	.	16f#	り
.	.	4.FF#	.	.	.	.	.	16f#	で
.	.	.	.	.	.	.	.	16gJJ	い
.	.	.	.	.	.	.	.	16f#LL	る
.	.	.	.	.	.	.	.	16f#	の
.	.	.	.	.	.	.	.	16e	な
.	.	.	.	.	.	.	.	16dJJ	ら
=51	=51	=51	=51	=51	=51	=51	=51	=51	=51
1r	.	16GG	.	2d	.	2g	fu	16r	.
.	.	16r	.	.	.	.	.	16dLL	ば
.	.	4GG	.	.	.	.	.	16d	か
.	.	.	.	.	.	.	.	16dJJ	み
.	.	.	.	.	.	.	.	16dLL	た
.	.	.	.	.	.	.	.	16d	い
.	.	16r	.	.	.	.	.	16d	に
.	.	16GG	.	.	.	.	.	16BJJ	が
.	.	16D	.	2d	.	2f#	.	16ALL	む
.	.	16r	.	.	.	.	.	16A	しゃ
.	.	4.D	.	.	.	.	.	16e	ら
.	.	.	.	.	.	.	.	[16dJJ	に
.	.	.	.	.	.	.	.	16dLL]	.
.	.	.	.	.	.	.	.	16d	ぼ
.	.	.	.	.	.	.	.	16d	く
.	.	.	.	.	.	.	.	[16eJJ	は
=52	=52	=52	=52	=52	=52	=52	=52	=52	=52
1r	.	8EL	.	8.eL	き	8.gL	き	8.eL]	.
.	.	8BB	.	.	.	.	.	.	.
.	.	.	.	[16eJk	み	[16gJk	み	16BJk	ず
.	.	8GG	.	8eL]	.	8gL]	.	16BKL	っ
.	.	.	.	.	.	.	.	8d	と
.	.	8EEJ	.	16eL	に	16gL	に	.	.
.	.	.	.	16eJJ	て	16gJJ	て	16BJk	て
.	.	8AAL	.	16eLL	を	16gLL	を	16bLL	を
.	.	.	.	16d	の	16f#	の	16a	の
.	.	8C#	.	16e	ば	16g	ば	16b	ば
.	.	.	.	16eJJ	し	16gJJ	し	16bJJ	し
.	.	8E	.	8dL	たいん	8aL	たいん	8f#L	たいん
.	.	8AAJ	.	16c#L	だ	16gL	だ	16eL	だ
.	.	.	.	16BJJ	.	16f#JJ	.	16dJJ	.
=53	=53	=53	=53	=53	=53	=53	=53	=53	=53
1r	.	16D	.	2A	.	2d	.	16r	.
.	.	16r	.	.	.	.	.	16f#LL	わ
.	.	4D	.	.	.	.	.	16f#	か
.	.	.	.	.	.	.	.	16f#JJ	り
.	.	.	.	.	.	.	.	8f#L	あう
.	.	16r	.	.	.	.	.	16eL	こ
.	.	16D	.	.	.	.	.	16dJJ	と
.	.	16AA	.	8r	.	8r	.	16bLL	は
.	.	16r	.	.	.	.	.	16b	む
.	.	4.AA	.	8BL	.	8eL	lu	16a	ず
.	.	.	.	.	.	.	.	16aJJ	か
.	.	.	.	8e	.	8g	lu	8f#L	しい
.	.	.	.	8gJ	.	8bJ	lu	16eL	け
.	.	.	.	.	.	.	.	16dJJ	ど
=54	=54	=54	=54	=54	=54	=54	=54	=54	=54
1r	.	16BB	.	4b	.	4dd	lu	16r	.
.	.	16r	.	.	.	.	.	16dLL	わ
.	.	4BB	.	.	.	.	.	16d	か
.	.	.	.	.	.	.	.	16dJJ	ち
.	.	.	.	4a	.	4cc#	.	16dLL	あ
.	.	.	.	.	.	.	.	16d	う
.	.	16r	.	.	.	.	.	16d	こ
.	.	16BB	.	.	.	.	.	16dJJ	と
.	.	16FF#	.	4f#	.	4a	.	16eLL	は
.	.	16r	.	.	.	.	.	16f#	ぼ
.	.	4.FF#	.	.	.	.	.	16f#	く
.	.	.	.	.	.	.	.	16gJJ	に
.	.	.	.	4d	.	4f#	.	16f#LL	も
.	.	.	.	.	.	.	.	16f#	で
.	.	.	.	.	.	.	.	16e	き
.	.	.	.	.	.	.	.	16dJJ	る
=55	=55	=55	=55	=55	=55	=55	=55	=55	=55
1r	.	16GG	.	2B	.	2d	uh	16r	.
.	.	16r	.	.	.	.	.	16dLL	た
.	.	4GG	.	.	.	.	.	16d	だ
.	.	.	.	.	.	.	.	16dJJ	と
.	.	.	.	.	.	.	.	16dLL	な
.	.	.	.	.	.	.	.	16d	り
.	.	16r	.	.	.	.	.	16d	に
.	.	16GG	.	.	.	.	.	16BJJ	い
.	.	16D	.	2c#	.	2f#	.	16AKL	る
.	.	16r	.	.	.	.	.	8e	か
.	.	4.D	.	.	.	.	.	.	.
.	.	.	.	.	.	.	.	[16dJk	ら
.	.	.	.	.	.	.	.	16dLL]	.
.	.	.	.	.	.	.	.	16d	い
.	.	.	.	.	.	.	.	16d	つ
.	.	.	.	.	.	.	.	[16eJJ	も
=56	=56	=56	=56	=56	=56	=56	=56	=56	=56
1r	.	4E	.	2e	.	2g	fu	8.eL]	.
.	.	.	.	.	.	.	.	16BJk	き
.	.	8E	.	.	.	.	.	16BKL	み
.	.	.	.	.	.	.	.	8d	の
.	.	16r	.	.	.	.	.	.	.
.	.	16GG	.	.	.	.	.	16BJk	そ
.	.	16AA	.	2c#	.	2e	.	16bKL	ば
.	.	16r	.	.	.	.	.	8b	に
.	.	8AA	.	.	.	.	.	.	.
.	.	.	.	.	.	.	.	16bJk	い
.	.	4C#	.	.	.	.	.	8f#L	る
.	.	.	.	.	.	.	.	16eL	か
.	.	.	.	.	.	.	.	[16dJJ	ら
=57	=57	=57	=57	=57	=57	=57	=57	=57	=57
1r	.	16D	.	8BL	.	8dL	lu	4d]	.
.	.	16r	.	.	.	.	.	.	.
.	.	4D	.	8c#	.	8e	lu	.	.
.	.	.	.	8d	.	8f#	lu	4r	.
.	.	16r	.	8eJ	.	8gJ	lu	.	.
.	.	16D	.	.	.	.	.	.	.
.	.	16D	.	8f#L	.	8aL	lu	2r	.
.	.	16r	.	.	.	.	.	.	.
.	.	4D	.	8g	.	8b	lu	.	.
.	.	.	.	8a	.	8cc#	lu	.	.
.	.	16r	.	8bJ	.	8ddJ	lu	.	.
.	.	16D	.	.	.	.	.	.	.
=58	=58	=58	=58	=58	=58	=58	=58	=58	=58
1r	.	8DL	.	8r	.	8r	.	1r	.
.	.	8D	.	8f#L	.	8aL	tu	.	.
.	.	8D	.	8f#	.	8a	tu	.	.
.	.	8DJ	.	8f#J	.	8aJ	tu	.	.
.	.	8DL	.	8f#L	.	8aL	tu	.	.
.	.	8DJ	.	8f#J	.	8aJ	tu	.	.
.	.	16r	.	16r	.	16r	.	.	.
.	.	8.E	.	8.g	.	8.b	tu	.	.
=59	=59	=59	=59	=59	=59	=59	=59	=59	=59
1r	.	8FF#L	.	8r	.	2f#	fu	8r	.
.	.	8AAJ	.	16f#LL	い	.	.	16aLL	い
.	.	.	.	16f#JJ	つ	.	.	16aJJ	つ
.	.	4C#	.	16f#LL	だ	.	.	16aLL	だ
.	.	.	.	16e	っ	.	.	16g	っ
.	.	.	.	16d	て	.	.	16fn	て
.	.	.	.	16dJJ	ま	.	.	16fJJ	ま
.	.	8GGL	.	16eLL	ん	2g	.	16gLL	ん
.	.	.	.	16e	な	.	.	16g	な
.	.	8BBJ	.	16e	か	.	.	16g	か
.	.	.	.	16eJJ	に	.	.	16gJJ	に
.	.	4D	.	16eKL	あ	.	.	16gKL	あ
.	.	.	.	8f#	る	.	.	8a	る
.	.	.	.	16f#Jk	よ	.	.	16aJk	よ
=60	=60	=60	=60	=60	=60	=60	=60	=60	=60
1r	.	16D	.	1e	.	4a	.	1f#	.
.	.	16r	.	.	.	.	.	.	.
.	.	4D	.	.	.	.	.	.	.
.	.	.	.	.	.	4d	fu	.	.
.	.	16r	.	.	.	.	.	.	.
.	.	16D	.	.	.	.	.	.	.
.	.	8DL	.	.	.	4f#	.	.	.
.	.	8F#	.	.	.	.	.	.	.
.	.	8A	.	.	.	4a	.	.	.
.	.	8AAJ	.	.	.	.	.	.	.
=61	=61	=61	=61	=61	=61	=61	=61	=61	=61
1r	.	8FF#L	.	2f#	fu	8r	.	8r	.
.	.	8AAJ	.	.	.	8cc#	たい	8a	たい
.	.	4C#	.	.	.	16cc#LL	せ	16aLL	せ
.	.	.	.	.	.	16b	つ	16g	つ
.	.	.	.	.	.	16a	な	16fn	な
.	.	.	.	.	.	16aJJ	も	16fJJ	も
.	.	8GGL	.	2g	.	16bLL	の	16gLL	の
.	.	.	.	.	.	16b	は	16g	は
.	.	8BBJ	.	.	.	16b	こ	16g	こ
.	.	.	.	.	.	16bJJ	こ	16gJJ	こ
.	.	4D	.	.	.	16bKL	に	16gKL	に
.	.	.	.	.	.	8cc#	あ	8a	あ
.	.	.	.	.	.	16cc#Jk	る	16aJk	る
=62	=62	=62	=62	=62	=62	=62	=62	=62	=62
1r	.	16D	.	8aL	.	4a	.	4f#	.
.	.	16r	.	.	.	.	.	.	.
.	.	4D	.	8gJ	.	.	.	.	.
.	.	.	.	4f#	.	4r	.	8r	.
.	.	16r	.	.	.	.	.	8f#	つ
.	.	16D	.	.	.	.	.	.	.
.	.	16FF#	.	4e	uh	2r	.	8f#L	つ
.	.	16r	.	.	.	.	.	.	.
.	.	8FF#	.	.	.	.	.	8c#J	む
.	.	8AAL	.	4c#	.	.	.	8f#L	よ
.	.	8C#J	.	.	.	.	.	16eL	う
.	.	.	.	.	.	.	.	[16dJJ	な
=63	=63	=63	=63	=63	=63	=63	=63	=63	=63
1r	.	4BB	.	1d	.	1f#	fu	4d]	.
.	.	8BB	.	.	.	.	.	16r	.
.	.	.	.	.	.	.	.	16BLL	き
.	.	16r	.	.	.	.	.	16c#	み
.	.	16BB	.	.	.	.	.	[16dJJ	の
.	.	16AA#X	.	.	.	.	.	4d]	.
.	.	16r	.	.	.	.	.	.	.
.	.	4.AA#	.	.	.	.	.	.	.
.	.	.	.	.	.	.	.	16r	.
.	.	.	.	.	.	.	.	16BLL	そ
.	.	.	.	.	.	.	.	16c#	の
.	.	.	.	.	.	.	.	[16dJJ	て
=64	=64	=64	=64	=64	=64	=64	=64	=64	=64
1r	.	4AA	.	2d	.	2f#	uh	8dL]	.
.	.	.	.	.	.	.	.	16eL	が
.	.	.	.	.	.	.	.	[16c#JJ	や
.	.	8AA	.	.	.	.	.	8c#L]	.
.	.	16r	.	.	.	.	.	16dL	さ
.	.	16AA	.	.	.	.	.	[16bJJ	し-
.	.	16GG#X	.	4e	.	4g#X	.	4b]	い
.	.	16r	.	.	.	.	.	.	.
.	.	4.GG#	.	.	.	.	.	.	.
.	.	.	.	8r	.	8r	.	8r	.
.	.	.	.	16gLL	つ	16ddLL	つ	16bLL	つ
.	.	.	.	[16gJJ	よ	[16ddJJ	よ	[16bJJ	よ
=65	=65	=65	=65	=65	=65	=65	=65	=65	=65
1r	.	8GGL	.	8gL]	.	8ddL]	.	8bL]	.
.	.	8GG	.	16f#L	く	16cc#L	く	16aL	く
.	.	.	.	[16f#JJ	に	[16cc#JJ	に	[16aJJ	に
.	.	8GG	.	8f#L]	.	8cc#L]	.	8aL]	.
.	.	8GGJ	.	16dL	ぎ	16bL	ぎ	16gL	ぎ
.	.	.	.	[16dJJ	り	[16bJJ	り	[16gJJ	り
.	.	8GGL	.	4d]	.	4b]	.	4g]	.
.	.	8GG	.	.	.	.	.	.	.
.	.	8GG	.	8r	.	8r	.	8r	.
.	.	8GGJ	.	16BLL	か	16f#LL	か	16dLL	か
.	.	.	.	[16f#JJ	え	[16cc#JJ	え	[16aJJ	え
=66	=66	=66	=66	=66	=66	=66	=66	=66	=66
1r	.	8AAL	.	4.f#]	.	4.cc#]	.	4.a]	.
.	.	8AA	.	.	.	.	.	.	.
.	.	8AA	.	.	.	.	.	.	.
.	.	8AAJ	.	16gLL	す	16ddLL	す	16bLL	す
.	.	.	.	16gJJ	よ	16ddJJ	よ	16bJJ	よ
.	.	8AAL	.	2e	.	2cc#	.	2a	.
.	.	8AA	.	.	.	.	.	.	.
.	.	8AA	.	.	.	.	.	.	.
.	.	8AAJ	.	.	.	.	.	.	.
=67	=67	=67	=67	=67	=67	=67	=67	=67	=67
1r	.	4AA	.	4d	.	4g	woh	1r	.
.	.	4AA	.	4e	.	4a	oh	.	.
.	.	2BB	.	2f#	.	2b	ha	.	.
=68	=68	=68	=68	=68	=68	=68	=68	=68	=68
*k[f#c#g#d#]	*	*k[f#c#g#d#]	*	*k[f#c#g#d#]	*	*k[f#c#g#d#]	*	*k[f#c#g#d#]	*
1r	.	16E	.	2g#	ah	2.b	ah	16r	.
.	.	16r	.	.	.	.	.	16g#LL	い
.	.	4E	.	.	.	.	.	16g#	つ
.	.	.	.	.	.	.	.	16g#JJ	か
.	.	.	.	.	.	.	.	8g#L	ちょ
.	.	16r	.	.	.	.	.	16f#L	っと
.	.	16E	.	.	.	.	.	16eJJ	か
.	.	16BB	.	2f#	.	.	.	16cc#LL	な
.	.	16r	.	.	.	.	.	16cc#	し
.	.	8BB	.	.	.	.	.	16b	い
.	.	.	.	.	.	.	.	16bJJ	こ
.	.	8GG#L	.	.	.	8g#L	fu	16g#LL	と
.	.	.	.	.	.	.	.	16g#	も
.	.	16AAL	.	.	.	8bJ	.	16f#	あ
.	.	16BBJJ	.	.	.	.	.	16eJJ	る
=69	=69	=69	=69	=69	=69	=69	=69	=69	=69
1r	.	16C#	.	2g#	uh	4cc#	.	16r	.
.	.	16r	.	.	.	.	.	16eLL	い
.	.	4C#	.	.	.	.	.	16e	つ
.	.	.	.	.	.	.	.	16eJJ	か
.	.	.	.	.	.	4b	.	8eL	ちょ
.	.	16r	.	.	.	.	.	16eL	っと
.	.	16C#	.	.	.	.	.	16BJJ	う
.	.	16GG#	.	4f#	.	2g#	.	16f#KL	れ
.	.	16r	.	.	.	.	.	8g#	しい
.	.	8GG#	.	.	.	.	.	.	.
.	.	.	.	.	.	.	.	16aJk	こ
.	.	8D#L	.	4d#	.	.	.	16g#LL	と
.	.	.	.	.	.	.	.	16g#	も
.	.	16BBL	.	.	.	.	.	16f#	あ
.	.	16GG#JJ	.	.	.	.	.	16eJJ	る
=70	=70	=70	=70	=70	=70	=70	=70	=70	=70
1r	.	16AA	.	2c#	.	2e	fu	16r	.
.	.	16r	.	.	.	.	.	16eLL	で
.	.	4AA	.	.	.	.	.	16e	も
.	.	.	.	.	.	.	.	16eJJ	ぜ
.	.	.	.	.	.	.	.	16eLL	ん
.	.	.	.	.	.	.	.	16e	ぶ
.	.	16r	.	.	.	.	.	16e	わ
.	.	16AA	.	.	.	.	.	16c#JJ	ら
.	.	16E	.	2e	.	2g#	.	16BLL	え
.	.	16r	.	.	.	.	.	16B	た
.	.	4E	.	.	.	.	.	16f#	ら
.	.	.	.	.	.	.	.	[16eJJ	い
.	.	.	.	.	.	.	.	16eLL]	.
.	.	.	.	.	.	.	.	16e	い
.	.	8E	.	.	.	.	.	16e	ぜん
.	.	.	.	.	.	.	.	[16f#JJ	ぶ
=71	=71	=71	=71	=71	=71	=71	=71	=71	=71
1r	.	8F#L	.	4f#	.	4a	laugh	8.f#L]	.
.	.	8C#	.	.	.	.	.	.	.
.	.	.	.	.	.	.	.	16c#Jk	か
.	.	8AA	.	4c#	.	4f#	laugh	16c#KL	か
.	.	.	.	.	.	.	.	8e	え
.	.	8FF#J	.	.	.	.	.	.	.
.	.	.	.	.	.	.	.	16c#Jk	い
.	.	8BBL	.	4d#	.	4f#	laugh	16cc#LL	き
.	.	.	.	.	.	.	.	16b	て
.	.	8D#	.	.	.	.	.	16cc#	い
.	.	.	.	.	.	.	.	16cc#JJ	け
.	.	8F#	.	4f#	.	4b	laugh	16g#LL	た
.	.	.	.	.	.	.	.	16g#	ら
.	.	8BBJ	.	.	.	.	.	16f#	い
.	.	.	.	.	.	.	.	16eJJ	い
=72	=72	=72	=72	=72	=72	=72	=72	=72	=72
1r	.	16E	.	16r	.	16r	.	16r	.
.	.	16r	.	16eLL	す	16bLL	す	16g#LL	す
.	.	4E	.	16e	べ	16b	べ	16g#	べ
.	.	.	.	16eJJ	て	16bJJ	て	16g#JJ	て
.	.	.	.	16eLL	が	16bLL	が	16g#LL	が
.	.	.	.	16e	ま	16b	ま	16g#	ま
.	.	16r	.	16d#	た	16a	た	16f#	た
.	.	16E	.	16c#JJ	か	16g#JJ	か	16eJJ	か
.	.	16BB	.	8g#L	わっ	8eeL	わっ	8cc#L	わっ
.	.	16r	.	.	.	.	.	.	.
.	.	4.BB	.	16f#L	て	16dd#L	て	16bL	て
.	.	.	.	16f#JJ	し	16dd#JJ	し	16bJJ	し
.	.	.	.	8eL	まっ	8bL	まっ	8g#L	まっ
.	.	.	.	16d#L	て	16aL	て	16f#L	て
.	.	.	.	16c#JJ	も	16g#JJ	も	16eJJ	も
=73	=73	=73	=73	=73	=73	=73	=73	=73	=73
1r	.	16C#	.	16r	.	16r	.	16r	.
.	.	16r	.	8c#L	なん	8g#L	なん	8eL	なん
.	.	4C#	.	.	.	.	.	.	.
.	.	.	.	16c#Jk	ど	16g#Jk	ど	16eJk	ど
.	.	.	.	16c#KL	で	16g#KL	で	16eKL	で
.	.	.	.	8c#	も	8g#	も	8e	も
.	.	16r	.	.	.	.	.	.	.
.	.	16C#	.	16G#Jk	は	16eJk	は	16BJk	は
.	.	16GG#	.	16c#KL	な	16aKL	な	16f#KL	な
.	.	16r	.	8d#	を	8b	を	8g#	を
.	.	4.GG#	.	.	.	.	.	.	.
.	.	.	.	16eJk	さ	16cc#Jk	さ	16aJk	さ
.	.	.	.	16d#LL	か	16bLL	か	16g#LL	か
.	.	.	.	16d#	せ	16b	せ	16g#	せ
.	.	.	.	16c#	よ	16a	よ	16f#	よ
.	.	.	.	16BJJ	う	16g#JJ	う	16eJJ	う
=74	=74	=74	=74	=74	=74	=74	=74	=74	=74
1r	.	16AA	.	4.A	.	4.e	.	8r	.
.	.	16r	.	.	.	.	.	.	.
.	.	4AA	.	.	.	.	.	16eLL	し
.	.	.	.	.	.	.	.	16eJJ	あ
.	.	.	.	.	.	.	.	16eLL	わ
.	.	.	.	.	.	.	.	16e	せ
.	.	16r	.	8r	.	8r	.	16e	に
.	.	16AA	.	.	.	.	.	16c#JJ	な
.	.	16E	.	4e	き	4g#	き	16BLL	れ
.	.	16r	.	.	.	.	.	16B	る
.	.	4.E	.	.	.	.	.	16f#	よう
.	.	.	.	.	.	.	.	[16eJJ	に
.	.	.	.	4e	み	4g#	み	16eLL]	.
.	.	.	.	.	.	.	.	16e	き
.	.	.	.	.	.	.	.	16e	み
.	.	.	.	.	.	.	.	[16f#JJ	と
=75	=75	=75	=75	=75	=75	=75	=75	=75	=75
1r	.	4F#	.	8.f#L	と	8.aL	と	8.f#L]	.
.	.	.	.	16AJk	と	16eJk	と	16c#Jk	と
.	.	8F#	.	16AKL	も	16eKL	も	16c#KL	も
.	.	.	.	8c#	に	8g#	に	8e	に
.	.	16r	.	.	.	.	.	.	.
.	.	16AA	.	16AJk	あ	16eJk	あ	16c#Jk	あ
.	.	16BB	.	16aLL	る	16eeLL	る	16cc#LL	る
.	.	16r	.	16g#	い	16dd#	い	16b	い
.	.	8BB	.	16a	て	16ee	て	16cc#	て
.	.	.	.	16aJJ	い	16eeJJ	い	16cc#JJ	い
.	.	4D#	.	16eLL	け	16bLL	け	16g#LL	け
.	.	.	.	16e	る	16b	る	16g#	る
.	.	.	.	16d#	よう	16a	よう	16f#	よう
.	.	.	.	16c#JJ	に	16g#JJ	に	16eJJ	に
=76	=76	=76	=76	=76	=76	=76	=76	=76	=76
16r	.	16r	.	16r	.	16r	.	16r	.
16G#KL	わ	16G#KL	わ	16g#KL	わ	16g#KL	わ	16g#KL	わ
8G#J	らい	8G#J	らい	8g#J	らい	8g#J	らい	8g#J	らい
16G#LL	な	16G#LL	な	16g#LL	な	16g#LL	な	16g#LL	な
16G#	が	16G#	が	16g#	が	16g#	が	16g#	が
16F#	ら	16F#	ら	16f#	ら	16f#	ら	16f#	ら
16EJJ	な	16EJJ	な	16eJJ	な	16eJJ	な	16eJJ	な
16c#LL	く	16c#LL	く	16cc#LL	く	16cc#LL	く	16cc#LL	く
16c#	よ	16c#	よ	16cc#	よ	16cc#	よ	16cc#	よ
16B	う	16B	う	16b	う	16b	う	16b	う
16BJJ	な	16BJJ	な	16bJJ	な	16bJJ	な	16bJJ	な
16G#LL	ひ	16G#LL	ひ	16g#LL	ひ	16g#LL	ひ	16g#LL	ひ
16G#	び	16G#	び	16g#	び	16g#	び	16g#	び
16F#	を	16F#	を	16f#	を	16f#	を	16f#	を
16EJJ	.	16EJJ	.	16eJJ	.	16eJJ	.	16eJJ	.
=77	=77	=77	=77	=77	=77	=77	=77	=77	=77
16r	.	16r	.	16r	.	16r	.	16r	.
16ELL	な	16ELL	な	16eLL	な	16eLL	な	16eLL	な
16E	き	16E	き	16e	き	16e	き	16e	き
16EJJ	な	16EJJ	な	16eJJ	な	16eJJ	な	16eJJ	な
16EKL	が	16EKL	が	16eKL	が	16eKL	が	16eKL	が
8E	ら	8E	ら	8e	ら	8e	ら	8e	ら
16BBJk	わ	16BBJk	わ	16BJk	わ	16BJk	わ	16BJk	わ
16F#LL	ら	16F#LL	ら	16f#LL	ら	16f#LL	ら	16f#LL	ら
16G#	う	16G#	う	16g#	う	16g#	う	16g#	う
16G#	よう	16G#	よう	16g#	よう	16g#	よう	16g#	よう
16AJJ	な	16AJJ	な	16aJJ	な	16aJJ	な	16aJJ	な
16G#LL	ひ	16G#LL	ひ	16g#LL	ひ	16g#LL	ひ	16g#LL	ひ
16G#	び	16G#	び	16g#	び	16g#	び	16g#	び
16F#	を	16F#	を	16f#	を	16f#	を	16f#	を
16EJJ	.	16EJJ	.	16eJJ	.	16eJJ	.	16eJJ	.
=78	=78	=78	=78	=78	=78	=78	=78	=78	=78
2A	.	2AA	.	2c#	.	2e	fu	8r	.
.	.	.	.	.	.	.	.	8e	そう
.	.	.	.	.	.	.	.	8eL	やっ
.	.	.	.	.	.	.	.	16eL	て
.	.	.	.	.	.	.	.	16BJJ	い
2G#	.	2GG#	.	2B	.	2e	.	16BLL	き
.	.	.	.	.	.	.	.	16B	て
.	.	.	.	.	.	.	.	16f#	い
.	.	.	.	.	.	.	.	[16eJJ	こ-
.	.	.	.	.	.	.	.	16eLL]	う
.	.	.	.	.	.	.	.	16e	だ
.	.	.	.	.	.	.	.	16e	か
.	.	.	.	.	.	.	.	[16f#JJ	ら
=79	=79	=79	=79	=79	=79	=79	=79	=79	=79
2A	.	2FF#	.	2c#	.	2e	.	8.f#L]	.
.	.	.	.	.	.	.	.	16c#Jk	ぼ
.	.	.	.	.	.	.	.	16c#KL	く
.	.	.	.	.	.	.	.	8e	は
.	.	.	.	.	.	.	.	16c#Jk	つ
2B	.	2BB	.	2d#	.	2f#	.	16cc#KL	よ
.	.	.	.	.	.	.	.	8cc#	く
.	.	.	.	.	.	.	.	16cc#Jk	な
.	.	.	.	.	.	.	.	8g#L	り
.	.	.	.	.	.	.	.	16f#L	た
.	.	.	.	.	.	.	.	[16eJJ	い
=80	=80	=80	=80	=80	=80	=80	=80	=80	=80
1r	.	1r	.	1r	.	1r	.	1e]	.
==	==	==	==	==	==	==	==	==	==
*-	*-	*-	*-	*-	*-	*-	*-	*-	*-
